!!!OTL: "Nonnenlied. " KEIN SCHOENRE LUST AUF ERDEN IST
!!!ARE: Europa, Mitteleuropa, Deutschland, Mittelrhein
!!!SCT: Z1249
!!!YEM: Copyright 1995, estate of Helmut Schaffrath.
**kern
*ICvox
*Ivox
*M6/8
*k[f#]
*G:
{8d
=1
4g
8g
8g
8a
8b
=2
8b
8a
8a
4a}
{16g
16b
=3
4dd
8dd
8dd
8cc
8b
=4
4.b
8a
8r}
{8dd
=5
8a
8a
8b
8cc
8b
8a
=6
4b
8cc
8ee
8dd}
{8dd
=7
8a
8a
8b
8cc
8b
8a
=8
4b
8cc
8ee
8dd}
{8dd
=9
8dd
8dd
8dd
8ee
8dd
8cc
=10
4b
8cc
4dd}
{8ee
=11
8dd
8dd
8dd
8dd
8cc
8cc
=12
4.b
4r}
==
!!!AGN: Liebes - Lied
!!!ONB: ESAC (Essen Associative Code) Database: ZUCCAL
!!!AMT: compound duple
!!!AIN: vox
!!!EED: Helmut Schaffrath
!!!EEV: 1.0
*-
